X:1
T:Pretty Polly
M:2/4
L:1/8
K:G
 E| E3/2 E/2 EG|E-D B,D| E2E-G| E4-| E3 B| B3/2 B/2 Bd| B2 AG| B2B-A|\
 B3 B| B2 AG| E2 DE| G2 AG| E4-| E3||
